X:326
T:Åsas Engelska
C:Patrik Månsson
R:Engelska
Z:Patrik Månsson, 3/7 2008
O:Röstånga, Skåne
M:2/4
L:1/16
K:D
N:Tillägnad Åsa Andersson
|: "D"F2DF A2FA | dcde f2d2 | "G"B2Bd "D"A2d2 | "A7"f2e2 "D"d4 :|
 "A7"A3A, B,2C2 | "D"DCDE F2D2 | "A7"A3A, B,2C2 | "D"DCDE F4 | "A7"A3A, B,2C2 | "D"DCDE F2D2 | "E7"^G3F E2B2 | "A7"A6 z2 |
 "D"F2DF A2FA | dcde f2d2 | "G"B2Bd "D"A2F2 | "G"B2Bd "D"A4 | "G"B2Bd "D"A2d2| "A7"f2e2 "D"d4 |

(:musicend:)

(:music:)
